!!!!SEGMENT: pl-kk--kk-i-388--002_anonim--credo-no-2.krn
!!!cenid: 18xx:1399
!!!COM: Anonim
!!!COM-rismid: pe30004985
!!!CDT:
!!!CNT:
!!!OTL: Credo No 2
!!!PDT:
!!!AGN: Sacred; Mass section
!!!SMS-siglum: PL-Kk
!!!SMS-shelfmark: Kk.I.388
!!!SMS-shelfwork: 002 W
!!!SMS-variant:
!!!SMS-altvar:
!!!NIFC-rismid: 1001140639
!!!URL-scan: http://repozytorium.nifc.pl/skany/pl-kk-nut--i-388
!!!ONB-nifc:
**kern	**text	**kern	**text	**kern	**text	**kern	**text
*part4	*part4	*part3	*part3	*part2	*part2	*part1	*part1
*staff4	*staff4	*staff3	*staff3	*staff2	*staff2	*staff1	*staff1
*I"Basso.	*	*I"Tenore.	*	*I"Alto.	*	*I"Soprano.	*
*I'B	*	*I'T	*	*I'A	*	*I'S	*
*clefF4	*	*clefC4	*	*clefC3	*	*clefC1	*
*k[b-e-]	*	*k[b-e-]	*	*k[b-e-]	*	*k[b-e-]	*
*g:	*	*g:	*	*g:	*	*g:	*
*M2/2	*	*M2/2	*	*M2/2	*	*M2/2	*
*met(c|)	*	*met(c|)	*	*met(c|)	*	*met(c|)	*
=1	=1	=1	=1	=1	=1	=1	=1
!	!	!	!	!LO:TX:b:t=in G. mol.	!	!LO:TX:rj:b:t=in G. mol.	!
!LO:TX:t=P:problem:oznaczenie metryczne alla breve z kropką	!	!LO:TX:t=P:problem:oznaczenie metryczne alla breve z kropką	!	!LO:TX:t=P:problem:oznaczenie metryczne alla breve z kropką	!	!LO:TX:t=P:problem:oznaczenie metryczne alla breve z kropką	!
1G\	Pa-	1d\	Pa-	2r	.	1b-\	Pa-
*	*	*	*	*2\right	*	*	*
!	!	!	!	!LO:TX:t=P:problem:all\right:global	!	!	!
.	.	.	.	2g\	Pa-	.	.
=2	=2	=2	=2	=2	=2	=2	=2
*2\right	*	*2\right	*	*	*	*2\right	*
!LO:TX:t=P:problem:all\right:global	!	!LO:TX:t=P:problem:all\right:global	!	!	!	!LO:TX:t=P:problem:all\right:global	!
2D\	-trem	2d\	-trem	2g\	.	2a\	-trem
2D\	om-	2d\	om-	4f#X\	-trem	2a\	om-
.	.	.	.	4f#\	om-	.	.
=3	=3	=3	=3	=3	=3	=3	=3
2G\	-ni-	2d\	-ni-	2g\	-ni-	2b-\	-ni-
!	!	!	!	!LO:SIC:v:s=2f#	!	!	!
2D\	-po-	2d\	-po-	2f\	-po-	2a\	-po-
=4	=4	=4	=4	=4	=4	=4	=4
1G\	-ten-	1d\	-ten-	1g\	-ten-	1b-\	-ten-
=5	=5	=5	=5	=5	=5	=5	=5
1D\	-tem	1d\	-tem	2f#X\	-tem	2a\	-tem
.	.	.	.	2f#\	fac-	[2dd\	fa-
=6	=6	=6	=6	=6	=6	=6	=6
!	!	!LO:TX:a:t=5.	!	!	!	!	!
1G\	fac-	00r	.	1g\	-to-	2dd\]	.
.	.	.	.	.	.	[2b-\	-cto-
=7	=7	=7	=7	=7	=7	=7	=7
1E-\	-to-	.	.	2g\	-rem,	2b-\]	.
.	.	.	.	2g\	fac-	2cc\	.
!	!	!	!	!LO:LB:g=original	!	!LO:LB:g=original	!
=8	=8	=8	=8	=8	=8	=8	=8
2F\	-rem	.	.	2fn\	-to-	2a\	-rem,
!	!	!	!	!	!	!LO:SIC:v:l:s=cae-	!
2D\	ce-	.	.	2f\	-rem	4b-\	ce-
.	.	.	.	.	.	4a\	-li
=9	=9	=9	=9	=9	=9	=9	=9
!	!	!	!	!LO:SIC:v:l:s=cae-	!	!	!
2E-\	-li	.	.	2g\	ce-	4g\	et
.	.	.	.	.	.	4a\	.
2D\	et	.	.	4f\	-li	[2b-\	.
.	.	.	.	4f\	et	.	.
!LO:LB:g=original	!	!	!	!	!	!	!
=10	=10	=10	=10	=10	=10	=10	=10
1C/	ter-	1r	.	1en\	ter-	2b-\]	ter-
.	.	.	.	.	.	2a\	.
=11	=11	=11	=11	=11	=11	=11	=11
!	!	!	!	!LO:SIC:v:l:s=-rae	!	!LO:SIC:v:l:s=-rae	!
2BB-/	-re,	2d\	vi-	2f\	-re,	1b-\	-re
2B-\	vi-	2d\	-si-	[2b-\	vi-	.	.
=12	=12	=12	=12	=12	=12	=12	=12
2F\	-si-	1c\	-bi-	2b-\]	.	2r	.
2F#X\	-bi-	.	.	2a\	-si-	4a\	vi-
.	.	.	.	.	.	4a\	-si-
!	!	!LO:LB:g=original	!	!	!	!	!
=13	=13	=13	=13	=13	=13	=13	=13
2G\	-li-	2B-\	-li-	2g\	-bi-	4b-\	-bi-
.	.	.	.	.	.	4cc\	-li-
2D\	-um	2A\	-um	4f#X\	-li-	2dd\	-um
.	.	.	.	4f#\	-um	.	.
=14	=14	=14	=14	=14	=14	=14	=14
2.E-X\	om-	2.G/	om-	2.g\	om-	2dd\	om-
.	.	.	.	.	.	2cc\	-ni-
4E-\	-ni-	4G/	-ni-	4g\	-ni-	.	.
=15	=15	=15	=15	=15	=15	=15	=15
1D\	-um,	2A\	-um,	2f#X\	-um,	1dd\	-um,
.	.	2r	.	2b-\	et	.	.
!	!	!	!	!	!	!LO:LB:g=original	!
=16	=16	=16	=16	=16	=16	=16	=16
2.C/	et	2.e-X\	et	2b-\	.	2r	.
.	.	.	.	2a\	in-	4a\	et
4C/	in-	4e-\	in-	.	.	4a\	in-
!	!	!	!	!LO:LB:g=original	!	!	!
=17	=17	=17	=17	=17	=17	=17	=17
2.BB-/	-vi-	2d\	-vi-	2g\	-vi-	2.dd\	-vi-
.	.	2G/	-si-	2g\	-si-	.	.
4C/	-si-	.	.	.	.	8cc\L	-si-
.	.	.	.	.	.	8b-\J	.
=18	=18	=18	=18	=18	=18	=18	=18
2.D\	-bi-	2.d\	-bi-	2g\	-bi-	2.a\	-bi-
.	.	.	.	2f#X\	-li-	.	.
4D\	-li-	4d\	-li-	.	.	4a\	-li-
=19	=19	=19	=19	=19	=19	=19	=19
1GG/	-um,	1d\	-um	1g\	-um.	1b-\	-um,
=20	=20	=20	=20	=20	=20	=20	=20
!LO:TX:a:t=4.	!	!	!	!	!	!	!
00r	.	2G/	et	2r	.	2.b-\	et
.	.	2G/	in	2g\	et	.	.
.	.	.	.	.	.	4b-\	in
=21	=21	=21	=21	=21	=21	=21	=21
.	.	2A\	u-	2g\	.	2a\	u-
.	.	4d\	-num	2f#X\	in	4a\	-num
.	.	4d\	in	.	.	4a\	in
!	!	!LO:LB:g=original	!	!	!	!	!
=22	=22	=22	=22	=22	=22	=22	=22
.	.	2B-\	u-	2g\	u-	2b-\	u-
.	.	2F#X/	-num	2a\	-num	2a\	-num
=23	=23	=23	=23	=23	=23	=23	=23
.	.	2.G/	Do-	2.g\	Do-	2.b-\	Do-
.	.	4G/	-mi-	4g\	-mi-	4b-\	-mi-
!LO:LB:g=original	!	!	!	!	!	!LO:LB:g=original	!
=24	=24	=24	=24	=24	=24	=24	=24
4r	.	2d\	-num	2f#X\	-num	2a\	-num
4D\	in	.	.	.	.	.	.
4D\	u-	2d\	in	2f#\	in	2a\	in
4D\	-num	.	.	.	.	.	.
=25	=25	=25	=25	=25	=25	=25	=25
2G\	Do-	2d\	u-	2g\	u-	2b-\	u-
4D\	-mi-	2d\	-num	2fn\	-num	2b-\	-num
4D\	-num	.	.	.	.	.	.
!	!	!	!	!LO:LB:g=original	!	!	!
=26	=26	=26	=26	=26	=26	=26	=26
2.E-X\	Je-	2B-\	Do-	2g\	Do-	2b-\	Do-
.	.	4B-\	-mi-	4g\	-mi-	4b-\	-mi-
4E-\	-sum	4B-\	-num	4g\	-num	4b-\	-num
=27	=27	=27	=27	=27	=27	=27	=27
2D\	Je-	2B-\	Je-	2f\	Je-	2b-\	Je-
2E-X\	-sum	2B-\	-sum	2g\	-sum	2b-\	-sum
=28	=28	=28	=28	=28	=28	=28	=28
1C/	Chri-	1c\	Chri-	1e-X\	Chri-	2b-\	Chri-
.	.	.	.	.	.	2a\	.
=29	=29	=29	=29	=29	=29	=29	=29
2BB-/	-stum	2F/	-stum	1d\	-stum	2b-\	-stum
2BB-/	fi-	2B-\	Fi-	.	.	2b-\	Fi-
=30	=30	=30	=30	=30	=30	=30	=30
2E-X\	-li-	2B-\	.	2g\	Fi-	2b-\	-li-
2E-\	-um	2e-X\	-li-	4g\	-li-	2b-\	-um
.	.	.	.	4g\	-um	.	.
=31	=31	=31	=31	=31	=31	=31	=31
2.C/	De-	[2e-\	-um	2.g\	De-	2.cc\	De-
.	.	2e-\]	.	.	.	.	.
4C/	-i	.	.	4g\	-i	4cc\	-i
!LO:LB:g=original	!	!LO:LB:g=original	!	!	!	!LO:LB:g=original	!
=32	=32	=32	=32	=32	=32	=32	=32
2D\	u-	4d\	De-	2f#X\	u-	2cc\	u-
.	.	4d\	-i	.	.	.	.
2G\	-ni-	4d\	u-	2g\	-ni-	2b-\	-ni-
.	.	4d\	-ni-	.	.	.	.
=33	=33	=33	=33	=33	=33	=33	=33
2.D\	-ge-	2.d\	-ge-	2g\	-ge-	2.a\	-ge-
.	.	.	.	2f#X\	-ni-	.	.
4D\	-ni-	4d\	-ni-	.	.	4a\	-ni-
=34	=34	=34	=34	=34	=34	=34	=34
1GG/	-tum.	1d\	-tum.	1g\	-tum.	1b-\	-tum.
!	!	!LO:TX:a:t=34.	!	!LO:TX:a:t=34	!	!LO:TX:a:t=34.	!
!	!	!	!	!LO:LB:g=original	!	!	!
=35||	=35||	=35||	=35||	=35||	=35||	=35||	=35||
*M3/4	*	*M3/4	*	*M3/4	*	*M3/4	*
4D\	Et	4d\	Et	4f\	Et	4a\	Et
4D\	in-	4d\	in-	4f\	in-	4a\	in-
4D\	-car-	4d\	-car-	4f\	-car-	4a\	-car-
=36	=36	=36	=36	=36	=36	=36	=36
2D\	-na-	2e-\	-na-	4.g\	-na-	2g\	-na-
.	.	.	.	8g\	-tus	.	.
4C#X/	-tus	4e-\	-tus	8g\	in-	4a\	-tus
.	.	.	.	8g\	-car-	.	.
=37	=37	=37	=37	=37	=37	=37	=37
2D\	est	2d\	est	4.f\	-na-	2a\	est
.	.	.	.	8f\	-tus	.	.
4D\	de	4d\	de	8f\	est	4a\	de
.	.	.	.	8f\	de	.	.
=38	=38	=38	=38	=38	=38	=38	=38
!	!	!	!	!LO:SIC:v:s=2en	!	!	!
2AA/	ſpi-	2c#X\	ſpi-	2e-\	ſpi-	2a\	ſpi-
4D\	-ri-	4d\	-ri-	4f\	-ri-	4a\	-ri-
=39	=39	=39	=39	=39	=39	=39	=39
!	!	!	!	!LO:SIC:v:s=4en	!	!	!
4AA/	-tu	2c#X\	-tu	4e-\	-tu	4a\	-tu,
2BB-X/	san-	.	.	2d\	san-	4a\	san-
.	.	4d\	san-	.	.	4g\	.
!	!	!LO:LB:g=original	!	!	!	!LO:LB:g=original	!
=40	=40	=40	=40	=40	=40	=40	=40
!	!	!	!	!LO:SIC:v:s=2en	!	!	!
2AA/	-cto,	2c#X\	-cto,	2e-\	-cto,	4a\	-cto,
.	.	.	.	.	.	4a\	ex
4r	.	4r	.	4r	.	4f/	Ma-
!LO:LB:g=original	!	!	!	!LO:LB:g=original	!	!	!
=41	=41	=41	=41	=41	=41	=41	=41
!LO:TX:a:t=8.	!	!LO:TX:a:t=8	!	!	!	!	!
!LO:N:vis=00	!	!LO:N:vis=00	!	!	!	!	!
0.r	.	0.r	.	4r	.	2b-\	-ri-
.	.	.	.	4d\	ex	.	.
.	.	.	.	4B-X/	Ma-	4b-\	-a
=42	=42	=42	=42	=42	=42	=42	=42
.	.	.	.	2f\	-ri-	4r	.
.	.	.	.	.	.	4a\	ex
.	.	.	.	4f\	-a	4dd\	Ma-
=43	=43	=43	=43	=43	=43	=43	=43
.	.	.	.	4.f\	ex	2g\	-ri-
.	.	.	.	8f\	Ma-	.	.
.	.	.	.	8f\	-ri-	[4cc\	-a
.	.	.	.	8f\	-a	.	.
=44	=44	=44	=44	=44	=44	=44	=44
.	.	.	.	4f\	Vir-	4cc\]	.
.	.	.	.	4.d\	.	4cc\	Vir-
.	.	.	.	.	.	4bn\	-gi-
.	.	.	.	8d\	-gi-	.	.
=45	=45	=45	=45	=45	=45	=45	=45
!LO:N:vis=00	!	!LO:N:vis=00	!	!	!	!	!
0.r	.	0.r	.	2c\	-ne,	2cc\	-ne,
.	.	.	.	4f\	et	4a\	et
=46	=46	=46	=46	=46	=46	=46	=46
.	.	.	.	4d\	Ho-	2b-\	Ho-
.	.	.	.	8d\	-mo	.	.
.	.	.	.	8e-\	et	.	.
.	.	.	.	4f\	Ho-	4a\	-mo
!	!	!	!	!LO:PB:g=original	!	!	!
=47	=47	=47	=47	=47	=47	=47	=47
.	.	.	.	4f\	-mo	8b-\L	fa-
.	.	.	.	.	.	8a\J	.
.	.	.	.	4f\	fa-	4.g\	.
.	.	.	.	4en\	-ctus	.	.
.	.	.	.	.	.	8g\	-ctus
!	!	!	!	!	!	!LO:PB:g=original	!
=48	=48	=48	=48	=48	=48	=48	=48
.	.	.	.	2.f\	est.	2.a\	est.
!	!	!	!	!LO:TX:a:t=14	!	!LO:TX:a:t=14	!
=49||	=49||	=49||	=49||	=49||	=49||	=49||	=49||
*M2/2	*	*M2/2	*	*M2/2	*	*M2/2	*
*met(c|)	*	*met(c|)	*	*met(c|)	*	*met(c|)	*
!LO:TX:t=P:problem:oznaczenie metryczne alla breve z kropką	!	!LO:TX:t=P:problem:oznaczenie metryczne alla breve z kropką	!	!LO:TX:t=P:problem:oznaczenie metryczne alla breve z kropką	!	!LO:TX:t=P:problem:oznaczenie metryczne alla breve z kropką	!
4r	.	4r	.	4r	.	4r	.
4G\	Et	4d\	Et	4g\	Et	4b-\	Et
4G\	re-	4d\	re-	4g\	re-	4b-\	re-
!LO:SIC:v:l:s=-sur-	!	!	!	!LO:SIC:v:l:s=-sur-	!	!	!
4G\	-su-	4d\	-sur-	4g\	-su-	4b-\	-sur-
=50	=50	=50	=50	=50	=50	=50	=50
4F#X\	-re-	4d\	-re-	4a\	-re-	4a\	-re-
4F#\	-xit,	4d\	-xit	4a\	-xit	4a\	-xit
4D\	re-	4d\	re-	4f#X\	re-	4a\	re-
!LO:SIC:v:l:s=-sur-	!	!	!	!LO:SIC:v:l:s=-sur-	!	!	!
4D\	-su-	4d\	-sur-	4f#\	-su-	4a\	-sur-
=51	=51	=51	=51	=51	=51	=51	=51
2G\	-re-	2d\	-re-	2g\	-re-	2b-\	-re-
2D\	-xit	2d\	-xit	2f#X\	-xit	2a\	-xit
=52	=52	=52	=52	=52	=52	=52	=52
2G\	ter-	2d\	ter-	2g\	ter-	2b-\	ter-
4E-X\	-ti-	4e-X\	-ti-	4g\	-ti-	4cc\	-ti-
4E-\	-a	4e-\	-a	4g\	-a	4cc\	-a
!	!	!	!	!LO:LB:g=original	!	!	!
=53	=53	=53	=53	=53	=53	=53	=53
2D\	di-	2A\	di-	2f#X\	di-	2dd\	di-
4G\	-e,	4B-\	-e	4g\	-e	4dd\	-e,
4G\	se-	4d\	se-	4g\	se-	4b-\	se-
!	!	!LO:LB:g=original	!	!	!	!LO:LB:g=original	!
=54	=54	=54	=54	=54	=54	=54	=54
2C/	-cun-	2e-X\	-cun-	2g\	-cun-	2cc\	-cun-
4G\	-dum	4d\	-dum	4g\	-dum	4b-\	-dum
4G\	scrip-	4d\	scrip-	4g\	scrip-	4b-\	scrip-
!LO:LB:g=original	!	!	!	!	!	!	!
=55	=55	=55	=55	=55	=55	=55	=55
1D\	-tu-	1d\	-tu-	2g\	-tu-	1a\	-tu-
.	.	.	.	2f#X\	.	.	.
=56	=56	=56	=56	=56	=56	=56	=56
1GG/	-ras.	1d\	-ras,	1g\	-ras	1b-\	-ras,
=57	=57	=57	=57	=57	=57	=57	=57
!LO:TX:a:t=9.	!	!	!	!	!	!LO:TX:a:t=1.	!
00r	.	2d\	et	2r	.	1r	.
.	.	2G/	as-	[2g\	et	.	.
=58	=58	=58	=58	=58	=58	=58	=58
.	.	1e-X\	-cen-	2g\]	.	2.b-\	et
.	.	.	.	2g\	as-	.	.
.	.	.	.	.	.	4g\	as-
=59	=59	=59	=59	=59	=59	=59	=59
.	.	2d\	-dit	2f#X\	-cen-	2a\	-cen-
.	.	2G/	in	4g\	-dit	4b-\	-dit
.	.	.	.	4g\	as-	4b-\	as-
=60	=60	=60	=60	=60	=60	=60	=60
!	!	!LO:SIC:v:l:s=cae-	!	!	!	!	!
.	.	2c\	ce-	2g\	-cen-	4cc\	-cen-
.	.	.	.	.	.	4dd\	.
.	.	4c\	-lum	4g\	-dit	4ee-X\	-dit
.	.	4B-\	in	4g\	in	4dd\	in
!	!	!	!	!LO:LB:g=original	!	!	!
=61	=61	=61	=61	=61	=61	=61	=61
!	!	!LO:SIC:v:l:s=cae-	!	!LO:SIC:v:l:s=cae-	!	!LO:SIC:v:l:s=cae-	!
00r	.	1A\	ce-	2g\	ce-	1cc\	cel-
.	.	.	.	2f#X\	.	.	.
=62	=62	=62	=62	=62	=62	=62	=62
.	.	2G/	-lum,	2g\	-lum,	2b-\	-lum,
.	.	2B-\	se-	2g\	se-	2dd\	se-
!	!	!	!	!	!	!LO:LB:g=original	!
=63	=63	=63	=63	=63	=63	=63	=63
.	.	2A\	-det	2a\	-det	2cc\	-det,
.	.	2d\	ad	2f#X\	ad	2dd\	ad
!	!	!LO:PB:g=original	!	!	!	!	!
=64	=64	=64	=64	=64	=64	=64	=64
.	.	2G/	dex-	2g\	dex-	4b-\	dex-
.	.	.	.	.	.	4cc\	-te-
.	.	4d\	-te-	4fn\	-te-	2dd\	-ram
.	.	4d\	-ram	4f\	-ram	.	.
=65	=65	=65	=65	=65	=65	=65	=65
1r	.	1A\	Pa-	1e-\	Pa-	2dd\	Pa-
.	.	.	.	.	.	2cc#X\	.
=66	=66	=66	=66	=66	=66	=66	=66
4r	.	2A\	-tris,	2f#X\	-tris,	2dd\	-tris,
4D\	et	.	.	.	.	.	.
4D\	i-	2d\	et	2f#\	et	2a\	et
4D\	-te-	.	.	.	.	.	.
=67	=67	=67	=67	=67	=67	=67	=67
4D\	-rum,	2.d\	i-	2.f#X\	i-	2.a\	i-
4D\	et	.	.	.	.	.	.
4D\	i-	.	.	.	.	.	.
4D\	-te-	4d\	-te-	4f#\	-te-	4a\	-te-
=68	=68	=68	=68	=68	=68	=68	=68
2G\	-rum	2d\	-rum	2g\	-rum	2b-\	-rum
2D\	ven-	2d\	ven-	2f#X\	ven-	2a\	ven-
!	!	!	!	!LO:LB:g=original	!	!	!
=69	=69	=69	=69	=69	=69	=69	=69
!LO:TX:t=P:problem:brak taktów nr 69-70	!	!	!	!	!	!	!
1ryy	.	2.d\	-tu-	2.g\	-tu-	2.b-\	-tu-
.	.	4d\	-rus	4g\	-rus,	4b-\	-rus
=70	=70	=70	=70	=70	=70	=70	=70
1ryy	.	2d\	est,	2f#X\	est	2a\	est
.	.	2d\	cum	2f#\	cum	2a\	ven-
!	!	!	!	!	!	!LO:LB:g=original	!
=71	=71	=71	=71	=71	=71	=71	=71
2.G\	-tu-	2.d\	glo-	2.g\	glo-	2.b-\	-tu-
4G\	-rus	4d\	-ri-	4g\	-ri-	4b-\	-rus
=72	=72	=72	=72	=72	=72	=72	=72
2C/	est	2e-X\	-a	2g\	-a,	2cc\	est,
2G\	cum	2d\	cum	2g\	cum	2b-\	cum
!	!	!LO:LB:g=original	!	!	!	!	!
=73	=73	=73	=73	=73	=73	=73	=73
2.C/	glo-	2.e-X\	glo-	2.g\	glo-	2.cc\	glo-
4C/	-ri-	4e-\	-ri-	4g\	-ri-	4cc\	-ri-
!LO:PB:g=original	!	!	!	!	!	!	!
=74	=74	=74	=74	=74	=74	=74	=74
1G\	-a	2d\	-a,	4g\	-a	1bn\	-a
.	.	.	.	4d\	cum	.	.
.	.	2G/	cum	[2g\	glo-	.	.
=75	=75	=75	=75	=75	=75	=75	=75
!LO:TX:a:t=5.	!	!	!	!	!	!	!
00r	.	2d\	glo-	2g\]	.	2r	.
.	.	4d\	-ri-	4f#X\	-ri-	2a\	cum
.	.	4d\	-a	4f#\	-a	.	.
=76	=76	=76	=76	=76	=76	=76	=76
.	.	2B-\	ju-	2g\	ju-	2b-\	glo-
.	.	2e-X\	-di-	2g\	-di-	4b-\	-ri-
.	.	.	.	.	.	4b-\	-a
=77	=77	=77	=77	=77	=77	=77	=77
.	.	2A\	-ca-	2g\	-ca-	4a\	ju-
.	.	.	.	.	.	4a\	-di-
.	.	2d\	-re	2f#X\	-re	4a\	-ca-
.	.	.	.	.	.	4a\	-re
!	!	!	!	!LO:LB:g=original	!	!	!
=78	=78	=78	=78	=78	=78	=78	=78
.	.	2G/	vi-	2g\	vi-	2b-\	vi-
!	!	!	!	!	!	!LO:LB:g=original	!
.	.	4d\	-vos	4f#X\	-vos	4a\	-vos
.	.	4d\	et	4f#\	et	4a\	et
=79	=79	=79	=79	=79	=79	=79	=79
1r	.	2.G/	mor-	2.g\	mor-	2.b-\	mor-
.	.	4G/	-tu-	4g\	-tu-	4b-\	-tu-
=80	=80	=80	=80	=80	=80	=80	=80
2.D\	cu-	2d\	-os,	2f#X\	-os,	2a\	-os,
.	.	4d\	cu-	4f#\	cu-	4a\	cu-
4D\	-jus	4d\	-jus	4f#\	-jus	4a\	-jus
=81	=81	=81	=81	=81	=81	=81	=81
2G\	re-	2d\	re-	2g\	re-	2b-\	re-
!	!	!LO:LB:g=original	!	!	!	!	!
4G\	-gni	4d\	-gni	4g\	-gni	4b-\	-gni
4G\	non	4d\	non	4g\	non	4b-\	non
=82	=82	=82	=82	=82	=82	=82	=82
!LO:SIC:v:s=2C	!	!	!	!	!	!	!
2D\	e-	2e-X\	e-	2g\	e-	2cc\	e-
2G\	-rit	2d\	-rit	2g\	-rit	2b-\	-rit
=83	=83	=83	=83	=83	=83	=83	=83
1D\	fi-	1d\	fi-	2g\	fi-	1a\	fi-
.	.	.	.	2f#X\	.	.	.
=84	=84	=84	=84	=84	=84	=84	=84
2GG/	-nis.	2d\	-nis.	2g\	-nis,	2b-\	-nis,
2r	.	2r	.	2r	.	2g\	et
=85	=85	=85	=85	=85	=85	=85	=85
!LO:TX:a:t=7.	!	!LO:TX:a:t=7	!	!LO:TX:a:t=3	!	!	!
00r	.	00r	.	0r	.	2g\	vi-
.	.	.	.	.	.	4f#X/	-tam
.	.	.	.	.	.	4f#/	ven-
!	!	!	!	!	!	!LO:LB:g=original	!
=86	=86	=86	=86	=86	=86	=86	=86
.	.	.	.	.	.	2g\	-tu-
.	.	.	.	.	.	2b-\	-ri
=87	=87	=87	=87	=87	=87	=87	=87
!	!	!	!	!	!	!LO:SIC:v:l:s=sae-	!
.	.	.	.	1r	.	2.a\	se-
.	.	.	.	.	.	4a\	-cu-
!	!	!	!	!LO:LB:g=original	!	!	!
=88	=88	=88	=88	=88	=88	=88	=88
.	.	.	.	4r	.	4g\	-li
.	.	.	.	4g\	ven-	4dd\	a-
.	.	.	.	4g\	-tu-	4ee-X\	.
.	.	.	.	4g\	-ri	4b-\	.
=89	=89	=89	=89	=89	=89	=89	=89
!	!	!	!	!LO:SIC:v:l:s=sae-	!	!	!
0r	.	1r	.	2g\	se-	4cc\	.
.	.	.	.	.	.	4a\	.
.	.	.	.	4fn\	-cu-	4dd\	.
.	.	.	.	4f\	-li	4cc\	.
=90	=90	=90	=90	=90	=90	=90	=90
.	.	1r	.	4r	.	4b-\	.
.	.	.	.	4f\	ven-	4g\	-men,
.	.	.	.	4e-X\	-tu-	2cc\	a-
.	.	.	.	4e-\	-ri	.	.
=91	=91	=91	=91	=91	=91	=91	=91
!	!	!	!	!LO:SIC:v:l:s=sae-	!	!	!
1r	.	1r	.	2d\	se-	2cc\	.
.	.	.	.	4g\	-cu-	2b-\	-men
.	.	.	.	4g\	-li	.	.
=92	=92	=92	=92	=92	=92	=92	=92
!	!	!	!	!	!	!LO:TX:t=P:problem:UWAGA! Błędy harmoniczne w tt. 92-94 [SA vs TB]	!
2r	.	2G/	A-	2g\	a-	1a\	a-
[2G\	a-	2B-\	-men	2f#X\	-men	.	.
=93	=93	=93	=93	=93	=93	=93	=93
2G\]	.	2A\	a-	4g\	a-	1b-\	-men
.	.	.	.	4d\	.	.	.
2F#X\	-men	4d\	.	2g\	-men	.	.
.	.	4c\	-men	.	.	.	.
!LO:LB:g=original	!	!	!	!	!	!	!
=94	=94	=94	=94	=94	=94	=94	=94
!	!	!LO:SIC:v:s=2A	!	!	!	!	!
1D\	a-	2B-\	a-	2g\	a-	1a\	a-
.	.	2d\	.	2f#X\	.	.	.
=95	=95	=95	=95	=95	=95	=95	=95
0GG/	-men.	0d\	-men.	0g\	-men.	0bn\	-men.
!	!	!LO:TX:a:t=48	!	!LO:TX:a:t=48.	!	!LO:TX:a:t=48.	!
==	==	==	==	==	==	==	==
*-	*-	*-	*-	*-	*-	*-	*-
!!!system-decoration: [(s1,s2,s3,s4)]
!!!EED: Leszek Kubiak
!!!EST: 2021-01-15
!!!ENC: Andrzej Kubiczek
!!!END: 2021-01-15
